svgs/thin/rainbow.svg

<svg xmlns="http://www.w3.org/2000/svg" viewBox="0 0 640 512"><!--! Font Awesome Pro 6.6.0 by @fontawesome - https://fontawesome.com License - https://fontawesome.com/license (Commercial License) Copyright 2024 Fonticons, Inc. --><path d="M320 48C152.1 48 16 184.1 16 352l0 120c0 4.4-3.6 8-8 8s-8-3.6-8-8L0 352C0 175.3 143.3 32 320 32s320 143.3 320 320l0 120c0 4.4-3.6 8-8 8s-8-3.6-8-8l0-120C624 184.1 487.9 48 320 48zm0 192c-61.9 0-112 50.1-112 112l0 120c0 4.4-3.6 8-8 8s-8-3.6-8-8l0-120c0-70.7 57.3-128 128-128s128 57.3 128 128l0 120c0 4.4-3.6 8-8 8s-8-3.6-8-8l0-120c0-61.9-50.1-112-112-112zM104 360l0 112c0 4.4-3.6 8-8 8s-8-3.6-8-8l0-112c0-128.1 103.9-232 232-232s232 103.9 232 232l0 112c0 4.4-3.6 8-8 8s-8-3.6-8-8l0-112c0-119.3-96.7-216-216-216s-216 96.7-216 216z"/></svg>

<svg xmlns="http://www.w3.org/2000/svg" viewBox="0 0 640 512"><!--! Font Awesome Pro 6.4.2 by @fontawesome - https://fontawesome.com License - https://fontawesome.com/license (Commercial License) Copyright 2023 Fonticons, Inc. --><path d="M320 48C152.1 48 16 184.1 16 352V472c0 4.4-3.6 8-8 8s-8-3.6-8-8V352C0 175.3 143.3 32 320 32s320 143.3 320 320V472c0 4.4-3.6 8-8 8s-8-3.6-8-8V352C624 184.1 487.9 48 320 48zm0 192c-61.9 0-112 50.1-112 112V472c0 4.4-3.6 8-8 8s-8-3.6-8-8V352c0-70.7 57.3-128 128-128s128 57.3 128 128V472c0 4.4-3.6 8-8 8s-8-3.6-8-8V352c0-61.9-50.1-112-112-112zM104 360V472c0 4.4-3.6 8-8 8s-8-3.6-8-8V360c0-128.1 103.9-232 232-232s232 103.9 232 232V472c0 4.4-3.6 8-8 8s-8-3.6-8-8V360c0-119.3-96.7-216-216-216s-216 96.7-216 216z"/></svg>
